X:1
T:Title
%%score ( 1 2 ) { 3 | 4 }
L:1/8
Q:1/4=105
M:6/8
K:Eb
V:1 treble nm="Grand Piano, Soprano"
V:2 treble 
V:3 bass nm="Choir Pad, Benton, anonymous, 1872"
V:4 bass 
V:1
 z3 z A2 | [EA] [EG]2- [EG]/ z/ [B,E]2- | [B,E] [B,D]2 [B,E] [B,F]2 | %3
 [B,G] [DF]2- [DF]2- [DF]/ z/ | [DF] E2 [EG] [FB]2 | [FB] [Fe]2- [Fe] [Fd]2- | %6
 [Fd] [Ec]2- [Ec] [Ec]2- | [Ec] [DB]2- [DB]2- [DB]/ z/ | [DB] [DB]2 [DB] [FB]2 | %9
 [GB] [FB]2- [FB]/ z/ [FB]2- | [FB] [EB]2 [Ec] [E_d]2 | [E_d] [Ec]2- [Ec]2- [Ec]/ z/ | %12
 [Ec] [Ac]2- [Ac] [Ad]2- | [Ad] [Ge]2 [Ee]ec | [FA] [EG]2- [EG] [DF]2- | [DF] E2- E3- | E3 z3 |] %17
V:2
 [EG] [EG]2 [EG]EC | x6 | x6 | x6 | x6 | x6 | x6 | x6 | x6 | x6 | x6 | x6 | x6 | z3 z E2 | x6 | %15
 x6 | x6 |] %17
V:3
 B, B,2 B,CE | C B,2- B,/ z/ G,2- | G, F,2 G, A,2 | B, A,2- A,2- A,/ z/ | A, G,2 B, B,2 | %5
 B, B,2- B, B,2- | B, G,2- G, F,2- | F, B,2- B,2- B,/ z/ | B, B,2[K:treble] C D2 | %9
 E F2- F/ z/[K:bass] B,2 | A, G,2 A, B,2 | B, A,2- A,2- A,/ z/ | A, A,2- A,/ z/ B,2- | %13
 B, B,2 B, C2 | C B,2- B, A,2- | A, G,2- G,3- | G,3 z3 |] %17
V:4
 E, E,2 E, E,2 | E, E,2- E,/ z/ E,2- | E, B,,2 B,, B,,2 | B,, B,,2- B,,2- B,,/ z/ | %4
 B,, E,2 E, D,2 | D, C,2- C, B,,2- | B,, E,2- E, z z | z B,,2- B,,2- B,,/ z/ | B,, B,,2 B,, B,,2 | %9
 B,, B,,2- B,,/ z/ D,2- | D, E,2 E, E,2 | .E,3 z3 | z3 z F,2- | F, E,2 G, A,2 | %14
 A,, B,,2- B,, B,,2- | B,, E,2- E,3- | E,3 z3 |] %17

